icon-themes/breeze_svg/cmd/km/sc_underline.svg

<svg viewBox="0 0 16 16" xmlns="http://www.w3.org/2000/svg"><path d="m3.4140625 1-.8085937.9804688-.4003907.4902343c-.1368136.16-.2050781.3185156-.2050781.4785157 0 .1666666.0753474.3333333.2265625.5l.4316406.5.5410157.6210937v5.1992187c0 2.1533328 1.8000306 3.2304688 5.4003906 3.2304688 3.6003606 0 5.4003906-1.077136 5.4003906-3.2304688v-5.1699218l-3.21875-1.71875h3.21875v-1.8808594h-3.757812l-.8105474.9804688-.4003906.4902343c-.1152115.1333333-.171875.2701563-.171875.4101563 0 .1866668.1107622.3750261.3339844.5683594l.5625.5 1.1328126.9902343v4.8300781c0 .8999998-.76251 1.3496098-2.2890626 1.3496098s-2.2890625-.44961-2.2890625-1.3496098v-5.1699218l-2.3554688-1.71875h3.0019531v-1.8808594zm-1.4140625 14v1h12v-1z" fill="#4d4d4d"/></svg>

<svg xmlns="http://www.w3.org/2000/svg" viewBox="0 0 16 16">
<path
   style="fill:#4d4d4d"
   d="M 3.4140625 1 L 2.6054688 1.9804688 L 2.2050781 2.4707031 C 2.0682645 2.6307031 2 2.7892187 2 2.9492188 C 2 3.1158854 2.0753474 3.2825521 2.2265625 3.4492188 L 2.6582031 3.9492188 L 3.1992188 4.5703125 L 3.1992188 9.7695312 C 3.1992188 11.922864 4.9992494 13 8.5996094 13 C 12.19997 13 14 11.922864 14 9.7695312 L 14 4.5996094 L 10.78125 2.8808594 L 14 2.8808594 L 14 1 L 10.242188 1 L 9.4316406 1.9804688 L 9.03125 2.4707031 C 8.9160385 2.6040364 8.859375 2.7408594 8.859375 2.8808594 C 8.859375 3.0675262 8.9701372 3.2558855 9.1933594 3.4492188 L 9.7558594 3.9492188 L 10.888672 4.9394531 L 10.888672 9.7695312 C 10.888672 10.669531 10.126162 11.119141 8.5996094 11.119141 C 7.0730568 11.119141 6.3105469 10.669531 6.3105469 9.7695312 L 6.3105469 4.5996094 L 3.9550781 2.8808594 L 6.9570312 2.8808594 L 6.9570312 1 L 3.4140625 1 z M 2 15 L 2 16 L 14 16 L 14 15 L 2 15 z "
   />
</svg>
